X:2
T:Hag at the Churn
R:Jig
C:Trad
M:6/8
L:1/8
Q:"114 bpm"
K:D
[|: {gef}e2 d {g}eA{d}A | {gef}e2d {g}eag | {ef}e2 d {g}eA{d}A | {g}Bcd {g}Bcd :|]
{g}eaf {gf}g2 d | {g}eaf ged | {g}eaf {gf}g2 e | {g}dBd {g}e2 {AGAG}A |
{g}eaf {gf}g2 d | {g}eaf ged | {g}eaf {gf}g2 e | {g}dBd {g}e3 |]

